packages/assets/static/images/icons/bold/basket--bold.svg

<svg width="24" height="24" viewBox="0 0 24 24" xmlns="http://www.w3.org/2000/svg">
<path d="M13.1253 13.1252V16.8752C13.1253 17.1736 13.0067 17.4597 12.7958 17.6707C12.5848 17.8817 12.2986 18.0002 12.0003 18.0002C11.7019 18.0002 11.4158 17.8817 11.2048 17.6707C10.9938 17.4597 10.8753 17.1736 10.8753 16.8752V13.1252C10.8753 12.8268 10.9938 12.5407 11.2048 12.3297C11.4158 12.1187 11.7019 12.0002 12.0003 12.0002C12.2986 12.0002 12.5848 12.1187 12.7958 12.3297C13.0067 12.5407 13.1253 12.8268 13.1253 13.1252ZM15.7559 13.0136L15.3809 16.7636C15.3513 17.0605 15.4409 17.357 15.6299 17.5878C15.8189 17.8186 16.0918 17.965 16.3887 17.9946C16.4262 17.9946 16.4646 18.0002 16.5012 18.0002C16.7801 17.9999 17.0489 17.8961 17.2556 17.7089C17.4623 17.5216 17.592 17.2643 17.6196 16.9868L17.9946 13.2368C18.0205 12.9418 17.9291 12.6486 17.7402 12.4207C17.5513 12.1927 17.2801 12.0484 16.9855 12.019C16.6909 11.9897 16.3966 12.0776 16.1664 12.2638C15.9363 12.45 15.7888 12.7194 15.7559 13.0136ZM8.24465 13.0136C8.21179 12.7194 8.06428 12.45 7.8341 12.2638C7.60392 12.0776 7.30962 11.9897 7.01503 12.019C6.72043 12.0484 6.44929 12.1927 6.26038 12.4207C6.07147 12.6486 5.98004 12.9418 6.0059 13.2368L6.3809 16.9868C6.40857 17.2644 6.53845 17.5219 6.7453 17.7092C6.95216 17.8965 7.22123 18.0002 7.50027 18.0002C7.53684 18.0002 7.57527 18.0002 7.61277 17.9946C7.90964 17.965 8.18259 17.8186 8.37159 17.5878C8.56059 17.357 8.65015 17.0605 8.62059 16.7636L8.24465 13.0136ZM22.8696 9.52426L21.4568 20.118C21.3967 20.5695 21.1747 20.9839 20.8321 21.284C20.4894 21.5842 20.0495 21.7499 19.594 21.7502H4.40652C3.95253 21.7489 3.51432 21.5834 3.1728 21.2843C2.83128 20.9851 2.6095 20.5726 2.5484 20.1227L1.13559 9.52895C1.11362 9.36971 1.12603 9.20761 1.17198 9.05357C1.21794 8.89954 1.29637 8.75714 1.402 8.63597C1.50762 8.51479 1.63799 8.41766 1.78431 8.35112C1.93064 8.28458 2.08953 8.25016 2.25027 8.2502H6.23934L11.1565 2.63457C11.2621 2.51393 11.3923 2.41724 11.5383 2.351C11.6843 2.28476 11.8428 2.25049 12.0031 2.25049C12.1634 2.25049 12.3219 2.28476 12.4679 2.351C12.6139 2.41724 12.7441 2.51393 12.8496 2.63457L17.7612 8.2502H21.7503C21.9106 8.25025 22.069 8.28456 22.215 8.35083C22.3609 8.41709 22.491 8.51378 22.5966 8.63442C22.7021 8.75506 22.7807 8.89686 22.827 9.05033C22.8732 9.20379 22.8862 9.36538 22.865 9.52426H22.8696ZM9.22996 8.2502H14.7706L12.0003 5.08332L9.22996 8.2502ZM20.465 10.5002H3.53559L4.73559 19.5002H19.2668L20.465 10.5002Z"/>
</svg>

<svg viewBox="0 0 24 24" xmlns="http://www.w3.org/2000/svg" aria-hidden="true" fill="currentColor"><path d="M13.125 13.125v3.75a1.125 1.125 0 0 1-2.25 0v-3.75a1.125 1.125 0 1 1 2.25 0m2.63-.111-.374 3.75a1.125 1.125 0 0 0 1.008 1.23c.037 0 .076.006.112.006a1.126 1.126 0 0 0 1.119-1.013l.375-3.75a1.125 1.125 0 0 0-2.24-.223m-7.51 0a1.125 1.125 0 0 0-2.24.223l.376 3.75A1.125 1.125 0 0 0 7.5 18q.054.001.112-.005a1.125 1.125 0 0 0 1.008-1.231zm14.625-3.49-1.413 10.594a1.88 1.88 0 0 1-1.863 1.632H4.407a1.88 1.88 0 0 1-1.859-1.627L1.136 9.529A1.125 1.125 0 0 1 2.25 8.25h3.99l4.916-5.615a1.125 1.125 0 0 1 1.694 0L17.76 8.25h3.99a1.125 1.125 0 0 1 1.114 1.274zM9.23 8.25h5.54L12 5.083zm11.235 2.25H3.535l1.2 9h14.532z"/></svg>
